images/Vector.svg

<svg width="21" height="20" viewBox="0 0 21 20" fill="none" xmlns="http://www.w3.org/2000/svg">
<path d="M20.1342 10.2102C20.1342 9.44107 19.5107 8.81756 18.7415 8.81756H11.7782V1.85427C11.7782 1.08512 11.1547 0.461609 10.3856 0.461609C9.61643 0.461609 8.99291 1.08512 8.99291 1.85427V8.81756H2.02962C1.26048 8.81756 0.636963 9.44107 0.636963 10.2102C0.636963 10.9794 1.26048 11.6029 2.02962 11.6029H8.99291V18.5662C8.99291 19.3353 9.61643 19.9588 10.3856 19.9588C11.1547 19.9588 11.7782 19.3353 11.7782 18.5662V11.6029H18.7415C19.5107 11.6029 20.1342 10.9794 20.1342 10.2102Z" fill="white" style="fill:white;fill-opacity:1;"/>
</svg>

<svg xmlns="http://www.w3.org/2000/svg" width="21" height="20" fill="none"><path fill="#fff" d="M20.134 10.21c0-.769-.623-1.392-1.393-1.392h-6.963V1.854a1.393 1.393 0 1 0-2.785 0v6.964H2.03a1.393 1.393 0 1 0 0 2.785h6.963v6.963a1.393 1.393 0 0 0 2.785 0v-6.963h6.963c.77 0 1.393-.624 1.393-1.393" style="fill:#fff;fill-opacity:1"/></svg>
